X: 77
T:Quizes,The. GS.077
M:2/4
L:1/16
Q:80
S:George Spencer m/s, Leeds,1831
R:Misc.
O:England
A:Leeds
H:1831
Z:vmp.Cherri Graebe
K:G major
d2 | BcBA G2G2 | FGFE D2D2 | G2G2A2A2 | B2d4d2 | BcBA G2G2 |! FGFE D2D2
| G2G2B2B2 | G6 :||:
d2 | dcBA GABc | d2g2 d4 | dcBA GABc |! defg d2ef | gfed edcB | cBAG  F2
D2 | G2G2 ABcA | G2F2 G4 :||
